X:34
I:linebreak $
T:Lauro
T:Re di Spagna
C:Vatican, Cap. 283
N:trans. Al Cofrin
N:for dance by Ebreo (15th C)
K:F major clef=G-8
M:6/4
L:1/4
d3 d3 | A3 G3 | d2 c B A2 | G3 G3 | 
B3 c3 | d3 d3 | f3 _e3 | d3 ^f3 | g3 g3 ||
c3 d3 | c3 c3 | g3 g3 | f3 f3 | g3 c3 | B3 _e3 | d3 d3 | 
G3 A3 | c3 d3 | f3 e3 | d3 c3 | B3 A3 | G3 A3 | G6 |]

